komodo/Komodo-Biru/emblems/scalable/emblem-unreadable.svg

<?xml version="1.0" encoding="UTF-8" standalone="no"?>
<!-- Created with Inkscape (http://www.inkscape.org/) -->

<svg
   xmlns:dc="http://purl.org/dc/elements/1.1/"
   xmlns:cc="http://creativecommons.org/ns#"
   xmlns:rdf="http://www.w3.org/1999/02/22-rdf-syntax-ns#"
   xmlns:svg="http://www.w3.org/2000/svg"
   xmlns="http://www.w3.org/2000/svg"
   xmlns:xlink="http://www.w3.org/1999/xlink"
   xmlns:sodipodi="http://sodipodi.sourceforge.net/DTD/sodipodi-0.dtd"
   xmlns:inkscape="http://www.inkscape.org/namespaces/inkscape"
   width="96"
   height="96"
   id="svg2982"
   version="1.1"
   inkscape:version="0.48.1 r9760"
   sodipodi:docname="emblem-unreadable.svg">
  <defs
     id="defs2984">
    <filter
       color-interpolation-filters="sRGB"
       inkscape:collect="always"
       id="filter6279-2">
      <feGaussianBlur
         inkscape:collect="always"
         stdDeviation="0.8"
         id="feGaussianBlur6281-1" />
    </filter>
    <linearGradient
       inkscape:collect="always"
       xlink:href="#ButtonColor-6"
       id="linearGradient9181"
       gradientUnits="userSpaceOnUse"
       gradientTransform="translate(0,-7.8515622e-6)"
       x1="48"
       y1="1052.3622"
       x2="48"
       y2="902.36218" />
    <linearGradient
       x1="10.31979"
       y1="21"
       x2="10.31979"
       y2="0.99929649"
       id="ButtonColor-6"
       gradientUnits="userSpaceOnUse">
      <stop
         id="stop3189-4"
         style="stop-color:#c8c8c8;stop-opacity:1"
         offset="0" />
      <stop
         id="stop3191-0-2"
         style="stop-color:#e6e6e6;stop-opacity:1"
         offset="1" />
    </linearGradient>
    <clipPath
       id="clipPath3647">
      <path
         d="m -100,-74 0,96 96,0 0,-96 -96,0 z M -67.0625,-54 -52,-38.9375 -36.9375,-54 -24,-41.0625 -39.0625,-26 -24,-10.9375 -36.9375,2 -52,-13.0625 -67.0625,2 -80,-10.9375 -64.9375,-26 -80,-41.0625 -67.0625,-54 z"
         inkscape:connector-curvature="0"
         id="path3649"
         style="opacity:0.3;color:#000000;fill:#ff0000;fill-opacity:1;fill-rule:nonzero;stroke:none;stroke-width:4;marker:none;visibility:visible;display:inline;overflow:visible;enable-background:accumulate" />
    </clipPath>
    <filter
       color-interpolation-filters="sRGB"
       id="filter3651">
      <feGaussianBlur
         id="feGaussianBlur3653"
         stdDeviation="0.84000001" />
    </filter>
    <linearGradient
       x1="11"
       y1="3.9374998"
       x2="11"
       y2="18.083122"
       id="linearGradient3634"
       xlink:href="#linearGradient3904"
       gradientUnits="userSpaceOnUse"
       gradientTransform="matrix(4,0,0,4,4,-70)" />
    <linearGradient
       x1="11"
       y1="3.9374998"
       x2="11"
       y2="18.083122"
       id="linearGradient3904"
       gradientUnits="userSpaceOnUse">
      <stop
         id="stop3906"
         style="stop-color:#323232;stop-opacity:1"
         offset="0" />
      <stop
         id="stop3908"
         style="stop-color:#787878;stop-opacity:1"
         offset="1" />
    </linearGradient>
  </defs>
  <sodipodi:namedview
     id="base"
     pagecolor="#ffffff"
     bordercolor="#666666"
     borderopacity="1.0"
     inkscape:pageopacity="0.0"
     inkscape:pageshadow="2"
     inkscape:zoom="3.959798"
     inkscape:cx="36.39115"
     inkscape:cy="42.877139"
     inkscape:document-units="px"
     inkscape:current-layer="layer1"
     showgrid="false"
     inkscape:window-width="1280"
     inkscape:window-height="725"
     inkscape:window-x="0"
     inkscape:window-y="25"
     inkscape:window-maximized="1" />
  <metadata
     id="metadata2987">
    <rdf:RDF>
      <cc:Work
         rdf:about="">
        <dc:format>image/svg+xml</dc:format>
        <dc:type
           rdf:resource="http://purl.org/dc/dcmitype/StillImage" />
        <dc:title></dc:title>
      </cc:Work>
    </rdf:RDF>
  </metadata>
  <g
     inkscape:label="Layer 1"
     inkscape:groupmode="layer"
     id="layer1"
     transform="translate(0,-956.36218)">
    <g
       id="g6877">
      <rect
         transform="translate(0,-7.8515622e-6)"
         y="964.36218"
         x="8"
         height="80"
         width="80"
         id="rect9283"
         style="fill:#000000;fill-opacity:1;stroke:none;filter:url(#filter6279-2)"
         rx="5"
         ry="5" />
      <rect
         ry="5"
         rx="5"
         style="fill:url(#linearGradient9181);fill-opacity:1;stroke:none"
         id="rect9285"
         width="80"
         height="80"
         x="8"
         y="964.36218" />
      <g
         id="g3045"
         transform="matrix(0.93703148,0,0,0.93703148,3.0224889,959.38467)">
        <g
           transform="translate(0,74)"
           id="layer3"
           style="display:inline">
          <path
             d="M -36.923076,-54.000001 -52,-38.923078 -67.076922,-54.000001 -80,-41.076924 -64.923076,-26.000004 -80,-10.92308 -67.076922,2 -52,-13.076928 -36.923076,2 -24,-10.92308 -39.076924,-26.000004 -24,-41.076924 -36.923076,-54.000001 z"
             inkscape:connector-curvature="0"
             transform="translate(100,0)"
             clip-path="url(#clipPath3647)"
             id="path3638"
             style="opacity:0.2;fill:none;stroke:#ffffff;stroke-width:4;stroke-miterlimit:4;stroke-dasharray:none;filter:url(#filter3651)" />
          <path
             d="M 63.076924,-54.000001 48,-38.923078 32.923078,-54.000001 20,-41.076924 35.076924,-26.000004 20,-10.92308 32.923078,2 48,-13.076928 63.076924,2 76,-10.92308 60.923076,-26.000004 76,-41.076924 63.076924,-54.000001 z"
             inkscape:connector-curvature="0"
             id="Symbol"
             style="fill:url(#linearGradient3634);fill-opacity:1;stroke:none" />
        </g>
      </g>
    </g>
  </g>
</svg>

<?xml version="1.0" encoding="UTF-8" standalone="no"?>
<!-- Created with Inkscape (http://www.inkscape.org/) -->
<svg id="svg2982" xmlns:rdf="http://www.w3.org/1999/02/22-rdf-syntax-ns#" xmlns="http://www.w3.org/2000/svg" height="96" width="96" version="1.1" xmlns:cc="http://creativecommons.org/ns#" xmlns:xlink="http://www.w3.org/1999/xlink" xmlns:dc="http://purl.org/dc/elements/1.1/">
 <defs id="defs2984">
  <filter id="filter6279-2" color-interpolation-filters="sRGB">
   <feGaussianBlur id="feGaussianBlur6281-1" stdDeviation="0.8"/>
  </filter>
  <linearGradient id="linearGradient9181" y2="902.36" gradientUnits="userSpaceOnUse" x2="48" gradientTransform="translate(0 -.0000078516)" y1="1052.4" x1="48">
   <stop id="stop3189-4" style="stop-color:#c8c8c8" offset="0"/>
   <stop id="stop3191-0-2" style="stop-color:#e6e6e6" offset="1"/>
  </linearGradient>
  <clipPath id="clipPath3647">
   <path id="path3649" style="opacity:.3;color:#000000;fill:#f00" d="m-100-74v96h96v-96h-96zm32.938 20 15.062 15.062 15.062-15.062 12.938 12.938-15.062 15.062 15.062 15.062-12.938 12.938-15.062-15.062-15.062 15.062-12.938-12.938 15.062-15.062-15.062-15.062 12.938-12.938z"/>
  </clipPath>
  <filter id="filter3651" color-interpolation-filters="sRGB">
   <feGaussianBlur id="feGaussianBlur3653" stdDeviation="0.84000001"/>
  </filter>
  <linearGradient id="linearGradient3634" y2="18.083" gradientUnits="userSpaceOnUse" x2="11" gradientTransform="matrix(4,0,0,4,4,-70)" y1="3.9375" x1="11">
   <stop id="stop3906" style="stop-color:#323232" offset="0"/>
   <stop id="stop3908" style="stop-color:#787878" offset="1"/>
  </linearGradient>
 </defs>
 <metadata id="metadata2987">
  <rdf:RDF>
   <cc:Work rdf:about="">
    <dc:format>image/svg+xml</dc:format>
    <dc:type rdf:resource="http://purl.org/dc/dcmitype/StillImage"/>
    <dc:title/>
   </cc:Work>
  </rdf:RDF>
 </metadata>
 <g id="layer1" transform="translate(0 -956.36)">
  <g id="g6877">
   <rect id="rect9283" ry="5" style="filter:url(#filter6279-2)" rx="5" transform="translate(0 -.0000078516)" height="80" width="80" y="964.36" x="8"/>
   <rect id="rect9285" style="fill:url(#linearGradient9181)" rx="5" ry="5" height="80" width="80" y="964.36" x="8"/>
   <g id="g3045" transform="matrix(.93703 0 0 .93703 3.0225 959.38)">
    <g id="layer3" transform="translate(0,74)">
     <path id="path3638" style="opacity:.2;filter:url(#filter3651);stroke:#fff;stroke-width:4;fill:none" d="m-36.923-54-15.077 15.077-15.077-15.077-12.923 12.923 15.077 15.077-15.077 15.077 12.923 12.923 15.077-15.077 15.077 15.077 12.923-12.923-15.077-15.077 15.077-15.077-12.923-12.923z" clip-path="url(#clipPath3647)" transform="translate(100)"/>
     <path id="Symbol" style="fill:url(#linearGradient3634)" d="m63.077-54-15.077 15.077-15.077-15.077-12.923 12.923 15.077 15.077-15.077 15.077 12.923 12.923 15.077-15.077 15.077 15.077 12.923-12.923-15.077-15.077 15.077-15.077-12.923-12.923z"/>
    </g>
   </g>
  </g>
 </g>
</svg>
